static/assets/images/exchanges/wigoswap.svg

<svg width="275" height="256" viewBox="0 0 275 256" fill="none" xmlns="http://www.w3.org/2000/svg">
<path fill-rule="evenodd" clip-rule="evenodd" d="M194.27 3.45786C183.998 0 172.494 0 149.479 0H125.522C102.507 0 90.9996 0 80.7307 3.45786C72.3838 6.2679 64.6815 10.7167 58.0755 16.5435C49.9464 23.7115 44.1945 33.6844 32.687 53.6227L20.7085 74.3773C9.20104 94.3193 3.44914 104.288 1.30562 114.914C-0.435208 123.551 -0.435208 132.449 1.30562 141.086C3.44914 151.712 9.20475 161.681 20.7085 181.623L32.687 202.377C44.1945 222.319 49.9464 232.288 58.0755 239.456C64.6814 245.283 72.3837 249.732 80.7307 252.542C91.0033 256 102.503 256 125.522 256H149.479C172.494 256 184.002 256 194.27 252.542C202.616 249.732 210.317 245.283 216.922 239.456C225.051 232.288 230.807 222.316 242.314 202.377L254.293 181.623C265.8 161.681 271.552 151.712 273.696 141.086C275.435 132.448 275.435 123.552 273.696 114.914C271.552 104.288 265.796 94.3193 254.289 74.3773L242.31 53.6227C230.807 33.6807 225.051 23.7115 216.922 16.5435C210.318 10.7177 202.618 6.26889 194.274 3.45786H194.27ZM185.856 67.7844C184.387 65.5879 183.709 65.1872 183.668 65.1613C183.113 64.9229 182.516 64.8 181.912 64.8C181.308 64.8 180.711 64.9229 180.156 65.1613C180.111 65.1872 179.436 65.5879 177.968 67.7844C176.358 70.1774 174.482 73.6315 171.656 78.848L144.921 128.204L171.667 177.326C174.493 182.513 176.369 185.945 177.972 188.323C179.44 190.501 180.115 190.902 180.16 190.928C181.28 191.41 182.544 191.41 183.664 190.928C183.709 190.902 184.38 190.501 185.852 188.323C187.45 185.945 189.331 182.513 192.157 177.323L212.702 139.59C215.936 133.647 216.729 132.022 217.03 130.452C217.315 128.968 217.319 127.436 217.037 125.952C216.74 124.383 215.947 122.754 212.724 116.806L192.168 78.848C189.342 73.6315 187.462 70.1774 185.856 67.7844ZM159.169 71.6726L136.733 113.1L114.296 71.6726C111.686 66.8531 109.487 62.7905 107.454 59.763C105.415 56.7207 102.841 53.5968 99.0359 51.9494C96.6745 50.9274 94.1288 50.4001 91.5559 50.4001C88.9829 50.4001 86.4372 50.9274 84.0758 51.9494C80.2672 53.5968 77.6972 56.7207 75.6575 59.7593C73.6252 62.7905 71.4224 66.8531 68.8153 71.6726L48.0847 109.946L47.6397 110.774C45.0771 115.493 43.0634 119.203 42.2921 123.258C41.6688 126.535 41.6726 129.9 42.3032 133.176C43.082 137.227 45.1031 140.937 47.6731 145.649L48.1255 146.477L68.8413 184.524C71.452 189.318 73.6512 193.358 75.6835 196.371C77.7194 199.398 80.2931 202.503 84.0906 204.143C86.448 205.161 88.9884 205.686 91.5559 205.686C94.1234 205.686 96.6638 205.161 99.0211 204.143C102.819 202.503 105.392 199.394 107.428 196.371C109.457 193.358 111.66 189.318 114.267 184.524L136.733 143.267L159.199 184.524C161.806 189.314 164.009 193.358 166.038 196.371C168.077 199.398 170.647 202.503 174.445 204.143C176.802 205.161 179.342 205.686 181.91 205.686C184.477 205.686 187.018 205.161 189.375 204.143C193.173 202.503 195.746 199.394 197.786 196.371C199.815 193.358 202.014 189.318 204.625 184.524L225.34 146.477L225.793 145.649C228.363 140.937 230.384 137.227 231.163 133.176C231.793 129.9 231.797 126.534 231.174 123.258C230.402 119.203 228.392 115.493 225.83 110.774L225.381 109.946L204.651 71.6726C202.043 66.8531 199.841 62.7868 197.808 59.763C195.769 56.7207 193.199 53.5968 189.39 51.9494C187.029 50.9279 184.484 50.401 181.912 50.401C179.34 50.401 176.795 50.9279 174.434 51.9494C170.625 53.5968 168.051 56.7207 166.015 59.7593C163.983 62.7905 161.78 66.8531 159.169 71.6726ZM101.799 177.323L128.545 128.2L101.81 78.848C98.9877 73.6315 97.1075 70.1774 95.5017 67.7844C94.0294 65.5879 93.3508 65.1872 93.31 65.1613C92.7557 64.9235 92.1589 64.8008 91.5559 64.8008C90.9528 64.8008 90.356 64.9235 89.8017 65.1613C89.7572 65.1872 89.0786 65.5879 87.61 67.7844C86.0042 70.1774 84.124 73.6315 81.2981 78.848L60.7419 116.803C57.5192 122.754 56.7293 124.383 56.4289 125.952C56.147 127.436 56.1507 128.965 56.4363 130.452C56.7367 132.022 57.5303 133.647 60.7678 139.59L81.313 177.323C84.1351 182.513 86.0154 185.945 87.6174 188.323C89.086 190.505 89.7572 190.902 89.8054 190.928C90.9217 191.41 92.19 191.41 93.3063 190.928C93.3508 190.902 94.0257 190.501 95.4943 188.323C97.0964 185.945 98.9766 182.513 101.799 177.323Z" fill="white"/>
</svg>

<svg xmlns="http://www.w3.org/2000/svg" fill="none" viewBox="0 0 275 256"><path fill="#fff" fill-rule="evenodd" d="M194.27 3.458C183.998 0 172.494 0 149.479 0h-23.957C102.507 0 91 0 80.731 3.458a66.2 66.2 0 0 0-22.655 13.086c-8.13 7.168-13.882 17.14-25.389 37.079L20.709 74.377C9.2 94.32 3.448 104.288 1.306 114.914a66.2 66.2 0 0 0 0 26.172c2.143 10.626 7.899 20.595 19.403 40.537l11.978 20.754c11.508 19.942 17.26 29.911 25.389 37.079a66.2 66.2 0 0 0 22.655 13.086C91.003 256 102.503 256 125.522 256h23.957c23.015 0 34.523 0 44.791-3.458a66.1 66.1 0 0 0 22.652-13.086c8.129-7.168 13.885-17.14 25.392-37.079l11.979-20.754c11.507-19.942 17.259-29.911 19.403-40.537a66.3 66.3 0 0 0 0-26.172c-2.144-10.626-7.9-20.595-19.407-40.537L242.31 53.623c-11.503-19.942-17.259-29.911-25.388-37.08a66.2 66.2 0 0 0-22.648-13.085zm-8.414 64.326c-1.469-2.196-2.147-2.597-2.188-2.623a4.45 4.45 0 0 0-3.512 0c-.045.026-.72.427-2.188 2.623-1.61 2.393-3.486 5.847-6.312 11.064l-26.735 49.356 26.746 49.122c2.826 5.187 4.702 8.619 6.305 10.997 1.468 2.178 2.143 2.579 2.188 2.605a4.43 4.43 0 0 0 3.504 0c.045-.026.716-.427 2.188-2.605 1.598-2.378 3.479-5.81 6.305-11l20.545-37.733c3.234-5.943 4.027-7.568 4.328-9.138.285-1.484.289-3.016.007-4.5-.297-1.569-1.09-3.198-4.313-9.146l-20.556-37.958c-2.826-5.216-4.706-8.67-6.312-11.064m-26.687 3.889L136.733 113.1l-22.437-41.427c-2.61-4.82-4.809-8.882-6.842-11.91-2.039-3.042-4.613-6.166-8.418-7.814a18.83 18.83 0 0 0-14.96 0c-3.809 1.648-6.379 4.772-8.418 7.81-2.033 3.032-4.236 7.094-6.843 11.914l-20.73 38.273-.445.828c-2.563 4.719-4.577 8.429-5.348 12.484a26.4 26.4 0 0 0 .011 9.918c.779 4.051 2.8 7.761 5.37 12.473l.453.828 20.715 38.047c2.611 4.794 4.81 8.834 6.843 11.847 2.035 3.027 4.61 6.132 8.407 7.772a18.83 18.83 0 0 0 14.93 0c3.798-1.64 6.371-4.749 8.407-7.772 2.029-3.013 4.232-7.053 6.839-11.847l22.466-41.257 22.466 41.257c2.607 4.79 4.81 8.834 6.839 11.847 2.039 3.027 4.609 6.132 8.407 7.772a18.83 18.83 0 0 0 14.93 0c3.798-1.64 6.371-4.749 8.411-7.772 2.029-3.013 4.228-7.053 6.839-11.847l20.715-38.047.453-.828c2.57-4.712 4.591-8.422 5.37-12.473.63-3.276.634-6.642.011-9.918-.772-4.055-2.782-7.765-5.344-12.484l-.449-.828-20.73-38.273c-2.608-4.82-4.81-8.886-6.843-11.91-2.039-3.042-4.609-6.166-8.418-7.814a18.83 18.83 0 0 0-14.956 0c-3.809 1.648-6.383 4.772-8.419 7.81-2.032 3.032-4.235 7.094-6.846 11.914m-57.37 105.65 26.746-49.123-26.735-49.352c-2.822-5.216-4.703-8.67-6.308-11.064-1.473-2.196-2.151-2.597-2.192-2.623a4.45 4.45 0 0 0-3.508 0c-.045.026-.723.427-2.192 2.623-1.606 2.393-3.486 5.847-6.312 11.064l-20.556 37.955c-3.223 5.951-4.013 7.58-4.313 9.149a12 12 0 0 0 .007 4.5c.3 1.57 1.094 3.195 4.332 9.138l20.545 37.733c2.822 5.19 4.702 8.622 6.304 11 1.469 2.182 2.14 2.579 2.188 2.605a4.42 4.42 0 0 0 3.501 0c.045-.026.72-.427 2.188-2.605 1.602-2.378 3.483-5.81 6.305-11" clip-rule="evenodd"/></svg>
